X:2
T:Elegant and Everything Harmony
C:Jim Thompson
R:Reel
E:16
M:C
K:C
|:G2A2_B2=B2|c2G2c2e2|d2G2d2f2|e2c2e2g2|
G2A2_B2=B2|c2G2c2e2|d2G2d2f2|g2e2 g4:|
|:f4e4|d4c4|f4^f4|g8|
f4e4|d4c4|_A8|B8:|
T:  Last time only:
f4e4|d4c4|_A4G4|e4g4|]
